X: 100514
T: John Cawley's
S: "Treoir" 
Z: B.Black
M: 4/4
L: 1/8
R: reel
K: G
D |: GBAB G2 ge|d2 BG AGED|GBAB G2 ge|dBAB G3 z :|
bg g2 gaag | egdg egde | bg g2 gaag | egfa g3 a |
bg g2 gaag | egdg egde | g3 a gedg | egfa g3 ||
